X:58
T:Pyeping Pye-man. ThoH.058, The
Q:1/2=100
T:Piping Pye-man,aka. ThoH.058, The
T:Butcher's Hornpipe,aka. ThoH.058
M:C
L:1/8
B:Thompson's Compleat Collection of 120 Favourite Hornpipes.
Z:Village Music Project, Simon Wilson 2016
O:England.
K:A
ED|CDEC A,CDC|A,2A4BA|GABG EGBG|E2e4dc|
defd cdec|defg agfe|aefd ecBA|E2A4:|
|:c>d|ecAc ecAc|fdBd fdBd|gece fgaf|g2e4dc|
defd cdec|defg agfe|aefd ecBA|E2A4:|

